X:1
T:Title
%%score 1 { 2 | 3 }
L:1/8
Q:1/4=85
M:2/4
K:C
V:1 treble nm="Grand Piano, Soprano"
V:2 treble nm="Choir Pad, Bass"
V:3 bass 
V:1
 [EG][EG] [EG][EG] | [FA] [EG]3 | [EG][Ec] [FB][Ec] | .[Gd]4 | [EG][EG] [EG][EG] | [Ee] [Ec]3 | %6
w: By~W.~T.~Porter,~1874 * * *||||||
 [DB][DB] [^Fc][FA] | .G4 | [FG]>[FG] [FA][FB] | [Ec]2 [Ec]2 | [Gd]>[Gd] [Gc][Gd] | .[Ge]4 | %12
w: ||||||
 [Fd]>[Fc] [Fc][FA] | [EG]2 [Ec]2 | [DB]>[Ec] [Fd][DB] | [Ec]4- | [Ec]2 z2 |] %17
w: |||||
V:2
 CC CC | C C3 | C[K:bass]G, G,G, | .B,4 | C[K:treble]C CC | G, G,3 | G,G, A,C | .B,4 | D>D DD | %9
 C2 C2 | B,>B, B,B, | .C4 | A,>A, A,C | C2 G,2 | G,>G, G,G, | G,4- | G,2 z2 |] %17
V:3
 C,C, C,C, | C, C,3 | C,C, D,C, | .[G,,G,]4 | C,C, C,C, | C, C,3 | D,D, D,D, | .G,4 | G,>G, G,G, | %9
 C,2 C,2 | G,>G, G,G, | .C,4 | F,>F, F,F, | C,2 C,2 | z4 | C,4- | C,2 z2 |] %17

